X:195
T:Betty can Drink no Water
A:Wyresdale, Lancashire
B:A John Winder Book, April 1789
L:1/4
M:3/4
O:England
Z:Richard Robinson 
%%TUNEURL: http://www.leeds.ac.uk/music/Info/RRTuneBk/gettune/00000dcd.html
%%ID:00000dcd
K:C
ded | c2A | f2e ::\
aba | g2f | efg | c2A | ded | c2A | f2e :|
